web/wp-content/themes/cncf-twenty-two/images/projects/curiefense-icon-color.svg

<svg width="161" height="206" fill="none" xmlns="http://www.w3.org/2000/svg"><g clip-path="url(#clip0)"><path d="M160.9 45.7v58c0 34.7-30.6 72.4-75.5 94.7v-68.3l12.6 1.3c8.2.8 21.8-3.8 32-17 .5-.7.9-1.3 1.3-1.8.6-.9 1.1-1.8 1.5-2.8l.1-.1s1.4-2.6 1.8-3.5c4.8-11.3 5.9-30.3-7.2-42.4 3.8 22.5-13.6 28-13.6 28s.1-.2.3-.5c2.8-4.9 2.4-11-.8-15.6-4.1 8.1-7.1 9.8-11.6 10.8l-16.3-7.1V0l75.4 45.7z" fill="#436DB4"/><path d="M75.5 59.8l-49.4 83.4h16.6l31.2-14.3 1.6.2v76.7C30.6 183.5 0 145.7 0 111.1V53l75.5-35.9v42.7z" fill="#26BECD"/><path d="M94.8 104.9a4.7 4.7 0 1 0 0-9.4 4.7 4.7 0 0 0 0 9.4z" fill="#436DB4"/></g><defs><clipPath id="clip0"><path fill="#fff" d="M0 0H160.9V205.8H0z"/></clipPath></defs></svg>

<svg width="161" height="206" viewBox="0 0 161 206" fill="none" xmlns="http://www.w3.org/2000/svg">
<g clip-path="url(#clip0)">
<path d="M160.9 45.7V103.7C160.9 138.4 130.3 176.1 85.4 198.4V130.1L98 131.4C106.2 132.2 119.8 127.6 130 114.4C130.5 113.7 130.9 113.1 131.3 112.6C131.9 111.7 132.4 110.8 132.8 109.8L132.9 109.7C132.9 109.7 134.3 107.1 134.7 106.2C139.5 94.9 140.6 75.9 127.5 63.8C131.3 86.3 113.9 91.8 113.9 91.8C113.9 91.8 114 91.6 114.2 91.3C117 86.4 116.6 80.3 113.4 75.7C109.3 83.8 106.3 85.5 101.8 86.5L85.5 79.4V0L160.9 45.7Z" fill="#436DB4"/>
<path d="M75.5 59.8001L26.1 143.2H42.7L73.9 128.9L75.5 129.1V205.8C30.6 183.5 0 145.7 0 111.1V53.0001L75.5 17.1001V59.8001Z" fill="#26BECD"/>
<path d="M94.8 104.9C97.3957 104.9 99.5 102.796 99.5 100.2C99.5 97.6043 97.3957 95.5 94.8 95.5C92.2043 95.5 90.1 97.6043 90.1 100.2C90.1 102.796 92.2043 104.9 94.8 104.9Z" fill="#436DB4"/>
</g>
<defs>
<clipPath id="clip0">
<rect width="160.9" height="205.8" fill="white"/>
</clipPath>
</defs>
</svg>
